hosted/assets/icon/widgets/dark-mode/unused/load-file.svg

<svg width="50" height="50" viewBox="0 0 50 50" fill="none" xmlns="http://www.w3.org/2000/svg">
<path fill-rule="evenodd" clip-rule="evenodd" d="M9.8499 2.84999V47.15H40.1499V15.6591L27.2782 2.84999H9.8499ZM8.1499 2.09999C8.1499 1.57532 8.57524 1.14999 9.0999 1.14999H27.5878C27.839 1.14999 28.0799 1.24945 28.2579 1.42661L41.57 14.674C41.7492 14.8523 41.8499 15.0946 41.8499 15.3473V47.9C41.8499 48.4247 41.4246 48.85 40.8999 48.85H9.0999C8.57524 48.85 8.1499 48.4247 8.1499 47.9V2.09999Z" fill="white"/>
<path fill-rule="evenodd" clip-rule="evenodd" d="M27.8499 14.15V2H26.1499V14.9C26.1499 15.4247 26.5752 15.85 27.0999 15.85H40.9999V14.15H27.8499Z" fill="white"/>
<path d="M22.6863 43H34.1957H42.9565C44.3043 43 47 42.04 47 38.2C47 34.4153 43.0722 33.0397 41.0234 32.8094C40.9723 32.8036 40.935 32.764 40.9328 32.7126C40.8722 31.3113 39.423 25 32.1739 25C26.3238 25 23.9274 28.5032 23.4324 30.3259C23.4203 30.3702 23.3805 30.3999 23.3346 30.4003C19.3261 30.4342 16 33.0617 16 36.4C16 39.76 18.4314 43 22.6863 43Z" fill="#78768B"/>
<path fill-rule="evenodd" clip-rule="evenodd" d="M32.1738 25.85C26.732 25.85 24.6537 29.0719 24.2525 30.5487C24.1373 30.973 23.7556 31.2468 23.3417 31.2503C19.6162 31.2818 16.8499 33.6928 16.8499 36.4C16.8499 39.3527 18.9606 42.15 22.6862 42.15H42.9564C43.4612 42.15 44.2664 41.9621 44.9313 41.3939C45.5646 40.8526 46.1499 39.8993 46.1499 38.2C46.1499 36.6566 45.3692 35.6038 44.3004 34.8737C43.2054 34.1256 41.8538 33.7581 40.9283 33.654C40.4646 33.6019 40.1039 33.2225 40.0834 32.7493C40.0593 32.1907 39.7255 30.4299 38.5617 28.831C37.4327 27.2799 35.5052 25.85 32.1738 25.85ZM22.7889 29.5697C23.6452 27.3681 26.4027 24.15 32.1738 24.15C36.0916 24.15 38.5132 25.8757 39.9362 27.8306C41.0546 29.3671 41.5453 31.026 41.7128 32.0533C42.7748 32.2485 44.1061 32.6821 45.2594 33.4699C46.6667 34.4313 47.8499 35.9587 47.8499 38.2C47.8499 40.3406 47.0874 41.7874 46.0359 42.6861C45.016 43.5578 43.7995 43.85 42.9564 43.85H22.6862C17.902 43.85 15.1499 40.1672 15.1499 36.4C15.1499 32.5974 18.7162 29.8275 22.7889 29.5697ZM23.3273 29.5504C23.3272 29.5504 23.3274 29.5504 23.3273 29.5504V29.5504ZM28.4311 33.9547L31.5742 30.8261C31.9058 30.496 32.4418 30.496 32.7735 30.8261L35.9165 33.9547C36.2492 34.2859 36.2505 34.8241 35.9193 35.1568C35.5881 35.4895 35.0499 35.4907 34.7172 35.1596L33.0238 33.474V39.1429C33.0238 39.6123 32.6433 39.9929 32.1738 39.9929C31.7044 39.9929 31.3238 39.6123 31.3238 39.1429V33.474L29.6304 35.1596C29.2977 35.4907 28.7595 35.4895 28.4283 35.1568C28.0972 34.8241 28.0984 34.2859 28.4311 33.9547Z" fill="white"/>
</svg>

<svg width="50" height="50" fill="none" xmlns="http://www.w3.org/2000/svg"><path fill-rule="evenodd" clip-rule="evenodd" d="M9.85 2.85v44.3h30.3V15.66L27.278 2.85H9.85zm-1.7-.75a.95.95 0 01.95-.95h18.488c.251 0 .492.1.67.277L41.57 14.674c.18.178.28.42.28.673V47.9a.95.95 0 01-.95.95H9.1a.95.95 0 01-.95-.95V2.1z" fill="#fff"/><path fill-rule="evenodd" clip-rule="evenodd" d="M27.85 14.15V2h-1.7v12.9c0 .525.425.95.95.95H41v-1.7H27.85z" fill="#fff"/><path d="M22.686 43h20.27C44.304 43 47 42.04 47 38.2c0-3.785-3.928-5.16-5.977-5.39a.1.1 0 01-.09-.097c-.06-1.402-1.51-7.713-8.76-7.713-5.85 0-8.246 3.503-8.74 5.326a.101.101 0 01-.098.074c-4.009.034-7.335 2.662-7.335 6 0 3.36 2.431 6.6 6.686 6.6z" fill="#78768B"/><path fill-rule="evenodd" clip-rule="evenodd" d="M32.174 25.85c-5.442 0-7.52 3.222-7.921 4.699a.951.951 0 01-.911.701c-3.726.032-6.492 2.443-6.492 5.15 0 2.953 2.11 5.75 5.836 5.75h20.27c.505 0 1.31-.188 1.975-.756.634-.541 1.219-1.495 1.219-3.194 0-1.543-.78-2.596-1.85-3.326-1.095-.748-2.446-1.116-3.372-1.22a.95.95 0 01-.845-.905c-.024-.558-.358-2.32-1.521-3.918-1.13-1.551-3.057-2.981-6.388-2.981zm-9.385 3.72c.856-2.202 3.614-5.42 9.385-5.42 3.918 0 6.34 1.726 7.762 3.68a10.241 10.241 0 011.777 4.223c1.062.196 2.393.63 3.546 1.417 1.408.961 2.59 2.489 2.59 4.73 0 2.14-.762 3.587-1.813 4.486-1.02.872-2.236 1.164-3.08 1.164h-20.27c-4.784 0-7.536-3.683-7.536-7.45 0-3.803 3.566-6.572 7.639-6.83zm.538-.02zm5.104 4.405l3.143-3.129a.85.85 0 011.2 0l3.142 3.129a.85.85 0 01-1.199 1.205l-1.693-1.686v5.669a.85.85 0 11-1.7 0v-5.669L29.63 35.16a.85.85 0 01-1.199-1.205z" fill="#fff"/></svg>
